X:1
P: The Auld Town O' Ayr
C: from Barbara McOwen
C: Arr. T. Traub 7-24-03
K: D
M: 4/4
L: 1/8
F|"D"D<DF>A d3 c|"G"B/A/B/c/ d>B "D"A<FF<d|"D"D<DF>A d3 f|"Em"(3efg (3gfe "G"dd|"D"D<DF>A d3 c|
"G"B/A/B/c/ d>B "D"A<FF<A|"G"B/A/B/c/ d>B "D"A<FF>d|"Em"A<FF>D "A"E2 Ef||"D"D>dF>d A<FF>A|"G"B/A/B/c/ d>B "D"A<FF<d|
"D"D>dF>d A<FF>A|"Em"d>B A<F "A"E2 E>F|"D"D>dF>d A<FF>A|"G"B>AB>c "Bm"d3 f|"Em"(3efg (3gfe "G"dd|"D"A<FF>D "A"E3 |]
